src/static/logos/humongous.svg

<?xml version="1.0" encoding="UTF-8" standalone="no"?>
<svg width="256px" height="257px" viewBox="0 0 256 257" version="1.1" xmlns="http://www.w3.org/2000/svg" xmlns:xlink="http://www.w3.org/1999/xlink" preserveAspectRatio="xMidYMid">
    <g>
        <path d="M140.580355,111.074219 C151.265355,110.778219 161.458355,111.033219 172.129355,110.336219 C174.071355,110.209219 175.982355,109.641219 177.912355,109.307219 C181.866355,108.624219 184.363355,106.184219 185.317355,102.461219 C186.331355,98.5072186 187.396355,94.4522186 187.543355,90.4092186 C188.125355,74.3702186 188.498355,58.3192186 188.660355,42.2702186 C188.742355,34.1262186 186.144355,26.9032186 179.881355,21.2112186 C176.988355,18.5822186 174.284355,15.6832186 171.854355,12.6202186 C167.969355,7.72421863 168.626355,5.37021863 174.643355,4.12021863 C181.252355,2.74821863 188.008355,1.58621863 194.733355,1.37321863 C210.055355,0.888218631 225.398355,0.884218631 240.728355,1.04021863 C244.563355,1.07921863 248.533355,2.04821863 252.174355,3.34021863 C256.600355,4.91121863 257.086355,8.16321863 254.148355,11.8552186 C252.422355,14.0232186 250.212355,15.4452186 247.965355,17.1652186 C243.872355,20.2972186 239.454355,23.0602186 235.686355,26.5342186 C233.909355,28.1732186 232.647355,31.0162186 232.331355,33.4652186 C231.581355,39.2832186 231.537355,45.7832186 231.431355,51.6582186 C231.195355,64.6812186 231.188355,77.7072186 231.044355,90.7312186 C230.958355,98.5792186 230.872355,106.428219 230.642355,114.272219 C230.314355,125.477219 221.926355,133.739219 210.730355,133.837219 C195.561355,133.971219 180.388355,134.131219 165.220355,133.985219 C152.027355,133.858219 138.825355,132.796219 125.650355,133.109219 C112.134355,133.430219 98.6463545,134.917219 85.1473545,135.900219 C84.6143545,135.939219 84.0813545,136.021219 83.5573545,136.129219 C73.1463545,138.271219 71.0473545,140.603219 69.7583545,151.355219 C67.6073545,169.310219 68.1843545,187.329219 68.4653545,205.341219 C68.5323545,209.622219 68.7963545,213.902219 68.7593545,218.181219 C68.6893545,226.453219 71.4103545,233.493219 77.3403545,239.345219 C79.7443545,241.718219 81.9903545,244.294219 84.0083545,247.002219 C87.2843545,251.399219 86.5343545,253.578219 81.1033545,254.852219 C76.9563545,255.825219 72.6613545,256.715219 68.4343545,256.706219 C50.7853545,256.672219 33.1303545,256.465219 15.4923545,255.886219 C11.5333545,255.757219 7.41635454,254.345219 3.75635454,252.680219 C-0.780645457,250.615219 -1.22464546,246.620219 2.51635454,243.249219 C4.99835454,241.012219 8.05335454,239.407219 10.8683545,237.544219 C13.3913545,235.876219 16.0973545,234.442219 18.4373545,232.551219 C22.9313545,228.919219 25.6133545,224.165219 25.9043545,218.297219 C26.4783545,206.723219 27.1993545,195.149219 27.4363545,183.567219 C27.7783545,166.799219 27.7253545,150.024219 27.8973545,133.252219 C27.9213545,130.947219 27.9823545,128.575219 28.5203545,126.354219 C30.7343545,117.212219 38.4123545,111.241219 48.0533545,111.206219 C67.3263545,111.136219 86.5993545,111.185219 105.873355,111.185219 C125.320355,110.928219 129.178355,111.390219 140.580355,111.074219 Z M190.256155,168.530419 C204.567155,167.381419 216.238155,170.949419 224.311155,182.880419 C228.123155,188.513419 228.859155,194.917419 229.099155,201.683419 C229.350155,208.778419 230.062155,215.879419 230.993155,222.921419 C231.855155,229.439419 235.801155,234.443419 241.685155,237.719419 C244.329155,239.191419 247.000155,240.647419 249.482155,242.365419 C251.899155,244.038419 255.367155,245.448419 254.867155,249.005419 C254.366155,252.566419 250.773155,253.138419 247.863155,253.825419 C244.407155,254.640419 240.893155,255.459419 237.366155,255.687419 C219.393155,256.849419 201.411155,257.347419 183.499155,254.827419 C180.884155,254.459419 178.250155,253.755419 175.807155,252.759419 C172.348155,251.349419 171.474155,249.506419 172.734155,245.963419 C173.482155,243.860419 174.865155,241.878419 176.336155,240.161419 C178.766155,237.325419 181.489155,234.739419 184.105155,232.064419 C188.047155,228.034419 189.806155,223.232419 189.824155,217.577419 C189.873155,202.077419 190.100155,186.577419 190.255155,171.078419 C190.262155,170.399419 190.256155,169.720419 190.256155,168.530419 Z M67.5179545,76.4970186 C52.9059545,76.1550186 41.7779545,70.1930186 33.4659545,58.8740186 C29.1639545,53.0160186 27.0409545,46.3140186 25.7749545,39.1630186 C24.9489545,34.5010186 23.6249545,29.7030186 21.3789545,25.5910186 C19.6939545,22.5040186 16.3519545,20.2000186 13.4449545,17.9360186 C10.2239545,15.4270186 6.48995454,13.5740186 3.28695454,11.0450186 C-0.406045457,8.13001863 -0.0260454573,5.65001863 4.55095454,4.33301863 C9.65395454,2.86501863 14.9609545,1.70401863 20.2439545,1.33901863 C37.8529545,0.122018631 55.4959545,-0.802981369 73.1259545,1.04801863 C76.1139545,1.36101863 79.1389545,1.95601863 81.9769545,2.92001863 C86.2789545,4.38301863 87.2569545,7.24901863 85.0709545,11.3080186 C84.3279545,12.6870186 83.2319545,13.9300186 82.1009545,15.0330186 C80.4449545,16.6490186 78.5699545,18.0380186 76.8619545,19.6050186 C71.8429545,24.2070186 68.3239545,29.4110186 68.3389545,36.7070186 C68.3639545,48.8270186 67.9259545,60.9480186 67.6779545,73.0690186 C67.6589545,73.9560186 67.5969545,74.8410186 67.5179545,76.4970186 Z" fill="#373737"></path>
    </g>
</svg>

<svg width="256" height="257" xmlns="http://www.w3.org/2000/svg" preserveAspectRatio="xMidYMid"><path d="M140.58 111.074c10.685-.296 20.878-.04 31.55-.738 1.941-.127 3.852-.695 5.782-1.029 3.954-.683 6.451-3.123 7.405-6.846 1.014-3.954 2.08-8.009 2.226-12.052.582-16.039.955-32.09 1.117-48.139.082-8.144-2.516-15.367-8.779-21.059a72.73 72.73 0 01-8.027-8.59c-3.885-4.897-3.228-7.25 2.79-8.5 6.608-1.373 13.364-2.535 20.09-2.748 15.321-.485 30.664-.489 45.994-.333 3.835.04 7.805 1.008 11.446 2.3 4.426 1.571 4.912 4.823 1.974 8.515-1.726 2.168-3.936 3.59-6.183 5.31-4.093 3.132-8.51 5.895-12.279 9.37-1.777 1.638-3.039 4.481-3.355 6.93-.75 5.818-.794 12.318-.9 18.193-.236 13.023-.243 26.05-.387 39.073-.086 7.848-.172 15.697-.402 23.541-.328 11.205-8.716 19.467-19.912 19.565-15.169.134-30.342.294-45.51.148-13.193-.127-26.395-1.189-39.57-.876-13.516.321-27.004 1.808-40.503 2.791-.533.04-1.066.121-1.59.23-10.41 2.141-12.51 4.473-13.799 15.225-2.15 17.955-1.574 35.974-1.293 53.986.067 4.281.331 8.561.294 12.84-.07 8.272 2.651 15.312 8.581 21.164a67.332 67.332 0 016.668 7.657c3.276 4.397 2.526 6.576-2.905 7.85-4.147.973-8.442 1.863-12.669 1.854-17.649-.034-35.304-.24-52.942-.82-3.959-.129-8.076-1.54-11.736-3.206-4.537-2.065-4.98-6.06-1.24-9.43 2.482-2.238 5.537-3.843 8.352-5.706 2.523-1.668 5.23-3.102 7.57-4.993 4.493-3.632 7.175-8.386 7.466-14.254.574-11.574 1.295-23.148 1.532-34.73.342-16.768.29-33.543.461-50.315.024-2.305.085-4.677.623-6.898 2.214-9.142 9.892-15.113 19.533-15.148 19.273-.07 38.546-.02 57.82-.02 19.447-.258 23.305.204 34.707-.112zm49.676 57.456c14.311-1.149 25.982 2.42 34.055 14.35 3.812 5.633 4.548 12.037 4.788 18.803.251 7.095.963 14.196 1.894 21.238.862 6.518 4.808 11.522 10.692 14.798 2.644 1.472 5.315 2.928 7.797 4.646 2.417 1.673 5.885 3.083 5.385 6.64-.5 3.561-4.094 4.133-7.004 4.82-3.456.815-6.97 1.634-10.497 1.862-17.973 1.162-35.955 1.66-53.867-.86a32.601 32.601 0 01-7.692-2.068c-3.459-1.41-4.333-3.253-3.073-6.796.748-2.103 2.131-4.085 3.602-5.802 2.43-2.836 5.153-5.422 7.77-8.097 3.941-4.03 5.7-8.832 5.718-14.487.05-15.5.276-31 .431-46.499.007-.679.001-1.358.001-2.548zM67.518 76.497c-14.612-.342-25.74-6.304-34.052-17.623-4.302-5.858-6.425-12.56-7.691-19.711-.826-4.662-2.15-9.46-4.396-13.572-1.685-3.087-5.027-5.391-7.934-7.655-3.221-2.509-6.955-4.362-10.158-6.891C-.406 8.13-.026 5.65 4.551 4.333c5.103-1.468 10.41-2.629 15.693-2.994C37.853.122 55.496-.803 73.126 1.048c2.988.313 6.013.908 8.851 1.872 4.302 1.463 5.28 4.329 3.094 8.388-.743 1.379-1.839 2.622-2.97 3.725-1.656 1.616-3.531 3.005-5.239 4.572-5.019 4.602-8.538 9.806-8.523 17.102.025 12.12-.413 24.241-.661 36.362-.019.887-.081 1.772-.16 3.428z" fill="#373737"/></svg>
